packages/katcn/src/icons/svg/emoji-solid.svg

<svg xmlns="http://www.w3.org/2000/svg" fill="none" viewBox="0 0 24 24"><path fill="#000" d="M12 2C6.5 2 2 6.5 2 12s4.5 10 10 10 10-4.5 10-10S17.5 2 12 2m0 15.1c-2.8 0-5.1-2.3-5.1-5.1 0-.5.5-1 1-1 .6 0 1 .5 1 1 0 1.7 1.4 3.1 3.1 3.1s3.1-1.4 3.1-3.1c0-.5.4-1 1-1 .5 0 1 .5 1 1 0 2.8-2.3 5.1-5.1 5.1"/></svg>

<svg width="24" height="24" viewBox="0 0 24 24" fill="none" xmlns="http://www.w3.org/2000/svg">
<path d="M12 2C6.5 2 2 6.5 2 12C2 17.5 6.5 22 12 22C17.5 22 22 17.5 22 12C22 6.5 17.5 2 12 2ZM12 17.1C9.2 17.1 6.9 14.8 6.9 12C6.9 11.5 7.4 11 7.9 11C8.5 11 8.9 11.5 8.9 12C8.9 13.7 10.3 15.1 12 15.1C13.7 15.1 15.1 13.7 15.1 12C15.1 11.5 15.5 11 16.1 11C16.6 11 17.1 11.5 17.1 12C17.1 14.8 14.8 17.1 12 17.1Z" fill="black"/>
</svg>
